Adwaita++/apps/scalable/org.gnome.zbrown.KingsCross.svg

<svg enable-background="new" height="128" viewBox="0 0 128 128" width="128" xmlns="http://www.w3.org/2000/svg">
  <g transform="translate(1.421052 -195.816223)">
    <path d="m64 16a52 52 0 0 0 -52 52 52 52 0 0 0 52 52 52 52 0 0 0 52-52 52 52 0 0 0 -52-52zm0 16a35.999985 35.999985 0 0 1 36 36 35.999985 35.999985 0 0 1 -36 36 35.999985 35.999985 0 0 1 -36-36 35.999985 35.999985 0 0 1 36-36z" fill="#c01c28" transform="translate(-1.421052 195.81622)"/>
    <path d="m64 12a52 52 0 0 0 -52 52 52 52 0 0 0 52 52 52 52 0 0 0 52-52 52 52 0 0 0 -52-52zm0 16a35.999985 35.999985 0 0 1 36 36 35.999985 35.999985 0 0 1 -36 36 35.999985 35.999985 0 0 1 -36-36 35.999985 35.999985 0 0 1 36-36z" fill="#ed333b" transform="translate(-1.421052 195.81622)"/>
    <rect fill="#1c71d8" height="30" rx="4" width="120" x="2.578949" y="245.81624"/>
    <rect fill="#3584e4" height="30" rx="4" width="120" x="2.578949" y="243.81624"/>
    <g fill="#fff">
      <path d="m45.855362 222 .000002 4h16.00001l-.000002-4z" transform="translate(-18.44676 42.10981)"/>
      <g enable-background="new" transform="translate(-10.643503 25.464837)">
        <path d="m32 235.24185-12-6.24185v-4l12 6z"/>
        <path d="m32 231-12 6.24185v4l12-6z"/>
      </g>
    </g>
  </g>
</svg>

<?xml version="1.0" encoding="UTF-8" standalone="no"?>
<svg
   xmlns:dc="http://purl.org/dc/elements/1.1/"
   xmlns:cc="http://creativecommons.org/ns#"
   xmlns:rdf="http://www.w3.org/1999/02/22-rdf-syntax-ns#"
   xmlns:svg="http://www.w3.org/2000/svg"
   xmlns="http://www.w3.org/2000/svg"
   xmlns:sodipodi="http://sodipodi.sourceforge.net/DTD/sodipodi-0.dtd"
   xmlns:inkscape="http://www.inkscape.org/namespaces/inkscape"
   enable-background="new"
   viewBox="0 0 128 128"
   style="display:inline;enable-background:new"
   version="1.0"
   id="svg11300"
   height="128"
   width="128"
   sodipodi:docname="org.gnome.zbrown.KingsCross.svg"
   inkscape:version="0.92.4 5da689c313, 2019-01-14">
  <sodipodi:namedview
     pagecolor="#ffffff"
     bordercolor="#666666"
     borderopacity="1"
     objecttolerance="10"
     gridtolerance="10"
     guidetolerance="10"
     inkscape:pageopacity="0"
     inkscape:pageshadow="2"
     inkscape:window-width="1366"
     inkscape:window-height="704"
     id="namedview929"
     showgrid="false"
     inkscape:zoom="3.8984375"
     inkscape:cx="13.723447"
     inkscape:cy="62.076152"
     inkscape:window-x="0"
     inkscape:window-y="27"
     inkscape:window-maximized="1"
     inkscape:current-layer="g907" />
  <title
     id="title4162">Adwaita Icon Template</title>
  <defs
     id="defs3" />
  <metadata
     id="metadata4">
    <rdf:RDF>
      <cc:Work
         rdf:about="">
        <dc:format>image/svg+xml</dc:format>
        <dc:type
           rdf:resource="http://purl.org/dc/dcmitype/StillImage" />
        <dc:creator>
          <cc:Agent>
            <dc:title>GNOME Design Team</dc:title>
          </cc:Agent>
        </dc:creator>
        <dc:source />
        <cc:license
           rdf:resource="http://creativecommons.org/licenses/by-sa/4.0/" />
        <dc:title>Adwaita Icon Template</dc:title>
        <dc:subject>
          <rdf:Bag />
        </dc:subject>
        <dc:date />
        <dc:rights>
          <cc:Agent>
            <dc:title />
          </cc:Agent>
        </dc:rights>
        <dc:publisher>
          <cc:Agent>
            <dc:title />
          </cc:Agent>
        </dc:publisher>
        <dc:identifier />
        <dc:relation />
        <dc:language />
        <dc:coverage />
        <dc:description />
        <dc:contributor>
          <cc:Agent>
            <dc:title />
          </cc:Agent>
        </dc:contributor>
      </cc:Work>
      <cc:License
         rdf:about="http://creativecommons.org/licenses/by-sa/4.0/">
        <cc:permits
           rdf:resource="http://creativecommons.org/ns#Reproduction" />
        <cc:permits
           rdf:resource="http://creativecommons.org/ns#Distribution" />
        <cc:requires
           rdf:resource="http://creativecommons.org/ns#Notice" />
        <cc:requires
           rdf:resource="http://creativecommons.org/ns#Attribution" />
        <cc:permits
           rdf:resource="http://creativecommons.org/ns#DerivativeWorks" />
        <cc:requires
           rdf:resource="http://creativecommons.org/ns#ShareAlike" />
      </cc:License>
    </rdf:RDF>
  </metadata>
  <g
     transform="translate(0,-172)"
     style="display:inline"
     id="layer1">
    <g
       style="display:inline"
       id="layer9">
      <rect
         transform="translate(0,172)"
         y="0"
         x="0"
         height="0"
         width="0"
         id="rect4725"
         style="opacity:1;vector-effect:none;fill:#1a5fb4;fill-opacity:1;stroke:none;stroke-width:2;stroke-linecap:round;stroke-linejoin:round;stroke-miterlimit:4;stroke-dasharray:none;stroke-dashoffset:0;stroke-opacity:1" />
    </g>
    <g
       transform="translate(1.4210515,-23.816223)"
       id="g907">
      <path
         style="display:inline;opacity:1;vector-effect:none;fill:#c01c28;fill-opacity:1;stroke:none;stroke-width:1;stroke-linecap:round;stroke-linejoin:round;stroke-miterlimit:4;stroke-dasharray:none;stroke-dashoffset:0;stroke-opacity:0;enable-background:new"
         d="M 64,16 A 52,52 0 0 0 12,68 52,52 0 0 0 64,120 52,52 0 0 0 116,68 52,52 0 0 0 64,16 Z m 0,16 A 35.999985,35.999985 0 0 1 100,68 35.999985,35.999985 0 0 1 64,104 35.999985,35.999985 0 0 1 28,68 35.999985,35.999985 0 0 1 64,32 Z"
         transform="translate(-1.4210515,195.81622)"
         id="circle989"
         inkscape:connector-curvature="0" />
      <path
         style="display:inline;opacity:1;vector-effect:none;fill:#ed333b;fill-opacity:1;stroke:none;stroke-width:1;stroke-linecap:round;stroke-linejoin:round;stroke-miterlimit:4;stroke-dasharray:none;stroke-dashoffset:0;stroke-opacity:0;enable-background:new"
         d="M 64,12 A 52,52 0 0 0 12,64 52,52 0 0 0 64,116 52,52 0 0 0 116,64 52,52 0 0 0 64,12 Z m 0,16 A 35.999985,35.999985 0 0 1 100,64 35.999985,35.999985 0 0 1 64,100 35.999985,35.999985 0 0 1 28,64 35.999985,35.999985 0 0 1 64,28 Z"
         transform="translate(-1.4210515,195.81622)"
         id="path940"
         inkscape:connector-curvature="0" />
      <rect
         ry="4"
         rx="4"
         y="245.81624"
         x="2.5789485"
         height="30"
         width="120"
         id="rect987"
         style="display:inline;opacity:1;vector-effect:none;fill:#1c71d8;fill-opacity:1;stroke:none;stroke-width:1;stroke-linecap:round;stroke-linejoin:round;stroke-miterlimit:4;stroke-dasharray:none;stroke-dashoffset:0;stroke-opacity:0;enable-background:new" />
      <rect
         style="display:inline;opacity:1;vector-effect:none;fill:#3584e4;fill-opacity:1;stroke:none;stroke-width:1;stroke-linecap:round;stroke-linejoin:round;stroke-miterlimit:4;stroke-dasharray:none;stroke-dashoffset:0;stroke-opacity:0;enable-background:new"
         id="rect944"
         width="120"
         height="30"
         x="2.5789485"
         y="243.81624"
         rx="4"
         ry="4" />
      <g
         id="g866-3"
         transform="translate(-18.44676,42.10981)"
         style="display:inline;fill:#ffffff;enable-background:new">
        <path
           d="m 45.855362,222 2e-6,4 h 16.00001 l -2e-6,-4 z"
           style="font-style:normal;font-variant:normal;font-weight:bold;font-stretch:normal;font-size:medium;line-height:1.25;font-family:'Source Code Pro';-inkscape-font-specification:'Source Code Pro, Bold';font-variant-ligatures:normal;font-variant-caps:normal;font-variant-numeric:normal;font-feature-settings:normal;text-align:start;letter-spacing:0px;word-spacing:0px;writing-mode:lr-tb;text-anchor:start;fill:#ffffff;fill-opacity:1;stroke:none;stroke-width:0.24999999"
           id="path864-7"
           inkscape:connector-curvature="0" />
      </g>
      <g
         transform="translate(-10.643503,25.464837)"
         id="g997"
         style="display:inline;fill:#ffffff;fill-opacity:1;enable-background:new">
        <path
           id="path991"
           d="M 32,235.24185 20,229 v -4 l 12,6 z"
           style="fill:#ffffff;fill-opacity:1;stroke:none;stroke-width:1px;stroke-linecap:butt;stroke-linejoin:miter;stroke-opacity:1"
           inkscape:connector-curvature="0" />
        <path
           style="fill:#ffffff;fill-opacity:1;stroke:none;stroke-width:1px;stroke-linecap:butt;stroke-linejoin:miter;stroke-opacity:1"
           d="m 32,231 -12,6.24185 v 4 l 12,-6 z"
           id="path993"
           inkscape:connector-curvature="0" />
      </g>
    </g>
  </g>
</svg>
